icons/svgs/check-circle-solid.svg

<svg width="24" height="24" viewBox="0 0 24 24" fill="none" xmlns="http://www.w3.org/2000/svg">
<path d="M12 22C8.40625 22 5.125 20.125 3.32812 17C1.53125 13.9141 1.53125 10.125 3.32812 7C5.125 3.91406 8.40625 2 12 2C15.5547 2 18.8359 3.91406 20.6328 7C22.4297 10.125 22.4297 13.9141 20.6328 17C18.8359 20.125 15.5547 22 12 22ZM16.4141 10.1641H16.375C16.7656 9.8125 16.7656 9.22656 16.375 8.83594C16.0234 8.48438 15.4375 8.48438 15.0859 8.83594L10.75 13.2109L8.91406 11.375C8.52344 10.9844 7.9375 10.9844 7.58594 11.375C7.19531 11.7266 7.19531 12.3125 7.58594 12.6641L10.0859 15.1641C10.4375 15.5547 11.0234 15.5547 11.4141 15.1641L16.4141 10.1641Z" fill="black"/>
</svg>

<svg xmlns="http://www.w3.org/2000/svg" width="24" height="24" fill="currentColor" class="icon-check-circle-solid" viewBox="0 0 24 24">
  <mask id="a" width="21" height="20" x="1" y="2" maskUnits="userSpaceOnUse" style="mask-type:alpha">
    <path d="M12 22c-3.594 0-6.875-1.875-8.672-5-1.797-3.086-1.797-6.875 0-10C5.125 3.914 8.406 2 12 2c3.555 0 6.836 1.914 8.633 5 1.797 3.125 1.797 6.914 0 10A9.93 9.93 0 0 1 12 22m4.414-11.836h-.039c.39-.351.39-.937 0-1.328a.92.92 0 0 0-1.29 0L10.75 13.21l-1.836-1.836c-.39-.39-.976-.39-1.328 0a.856.856 0 0 0 0 1.29l2.5 2.5c.351.39.937.39 1.328 0z"/>
  </mask>
  <g mask="url(#a)">
    <path d="M0 0h24v24H0z"/>
  </g>
</svg>
